en/guide/_images/location-job/project/export.svg

<svg xmlns="http://www.w3.org/2000/svg" width="16" height="16" viewBox="0 0 16 16" fill="none"><path fill-rule="evenodd" clip-rule="evenodd" d="M4.79767 3.15923C4.49622 3.47802 4.72222 4.00277 5.16096 4.00277H7V9.00003C7 9.55232 7.44772 10 8 10C8.55228 10 9 9.55232 9 9.00003V4.00277H10.839C11.2778 4.00277 11.5038 3.47802 11.2023 3.15923L8.36329 0.156951C8.16602 -0.0516642 7.83398 -0.0516644 7.63671 0.156951L4.79767 3.15923ZM13 7.00003C13 6.44775 13.4477 6.00003 14 6.00003C14.5523 6.00003 15 6.44775 15 7.00003V13.5C15 14.3285 14.3284 15 13.5 15H2.5C1.67157 15 1 14.3285 1 13.5V7.00003C1 6.44775 1.44772 6.00003 2 6.00003C2.55228 6.00003 3 6.44775 3 7.00003V13H13V7.00003Z" fill="black"></path></svg>

<svg xmlns="http://www.w3.org/2000/svg" width="16" height="16" fill="none"><path fill="#000" fill-rule="evenodd" d="M4.798 3.16a.5.5 0 0 0 .363.843H7V9a1 1 0 0 0 2 0V4.003h1.839a.5.5 0 0 0 .363-.844L8.363.157a.5.5 0 0 0-.726 0l-2.84 3.002ZM13 7a1 1 0 1 1 2 0v6.5a1.5 1.5 0 0 1-1.5 1.5h-11A1.5 1.5 0 0 1 1 13.5V7a1 1 0 0 1 2 0v6h10V7Z" clip-rule="evenodd"/></svg>
